src/assets/img/cloudflare.svg

<svg width="135" height="45" viewBox="0 0 135 45" fill="none" xmlns="http://www.w3.org/2000/svg">
<g clip-path="url(#clip0_3315_1332)">
<path d="M124.592 14.0795L117.225 12.3527L115.909 11.8214L82.0964 12.0871V28.5575L124.592 28.6903V14.0795Z" fill="white"/>
<path d="M110.778 27.0965C110.99 26.5308 111.064 25.9222 110.996 25.3214C110.927 24.7207 110.717 24.1452 110.383 23.643C110.04 23.2281 109.62 22.8855 109.146 22.6348C108.672 22.3841 108.153 22.2302 107.62 22.182L84.7279 21.9163C84.5964 21.9163 84.4648 21.7835 84.3332 21.7835C84.3026 21.7603 84.2777 21.7302 84.2606 21.6956C84.2435 21.661 84.2346 21.6229 84.2346 21.5842C84.2346 21.5456 84.2435 21.5074 84.2606 21.4729C84.2777 21.4383 84.3026 21.4082 84.3332 21.385C84.4648 21.1194 84.5964 20.9865 84.8595 20.9865L107.884 20.7209C109.345 20.5571 110.737 20.0032 111.917 19.1161C113.096 18.229 114.02 17.0407 114.593 15.6735L115.909 12.22C115.909 12.0872 116.041 11.9544 115.909 11.8215C115.194 8.60505 113.458 5.71221 110.966 3.5826C108.473 1.453 105.36 0.203045 102.1 0.0226825C98.8393 -0.15768 95.6097 0.741407 92.9017 2.58332C90.1937 4.42524 88.1552 7.10929 87.0961 10.2276C85.7212 9.23625 84.0441 8.76594 82.3597 8.89936C80.8139 9.07337 79.3727 9.77303 78.2729 10.8834C77.1731 11.9937 76.4801 13.4488 76.3077 15.0094C76.2201 15.8082 76.2646 16.6161 76.4393 17.4002C73.9381 17.47 71.5626 18.5223 69.8181 20.3331C68.0736 22.1439 67.0977 24.5705 67.0981 27.0965C67.0765 27.5873 67.1208 28.0788 67.2297 28.5576C67.2357 28.6613 67.2792 28.7592 67.352 28.8326C67.4247 28.906 67.5216 28.95 67.6244 28.9561H109.857C110.12 28.9561 110.383 28.8233 110.383 28.5576L110.778 27.0965Z" fill="#374151"/>
<path d="M118.015 12.22H117.357C117.226 12.22 117.094 12.3528 116.962 12.4856L116.042 15.6734C115.83 16.2392 115.755 16.8478 115.824 17.4485C115.893 18.0493 116.103 18.6247 116.436 19.1269C116.779 19.5419 117.199 19.8845 117.674 20.1352C118.148 20.3859 118.666 20.5398 119.199 20.588L124.067 20.8537C124.199 20.8537 124.33 20.9865 124.462 20.9865C124.492 21.0097 124.517 21.0398 124.534 21.0743C124.552 21.1089 124.56 21.1471 124.56 21.1857C124.56 21.2244 124.552 21.2625 124.534 21.2971C124.517 21.3317 124.492 21.3618 124.462 21.385C124.33 21.6506 124.199 21.7834 123.935 21.7834L118.936 22.0491C117.474 22.2129 116.082 22.7668 114.903 23.6539C113.724 24.541 112.8 25.7293 112.226 27.0965L111.963 28.2919C111.831 28.4247 111.963 28.6904 112.226 28.6904H129.593C129.646 28.6981 129.701 28.6931 129.752 28.6759C129.804 28.6586 129.851 28.6294 129.889 28.5908C129.927 28.5521 129.956 28.505 129.973 28.4531C129.99 28.4012 129.995 28.346 129.988 28.2919C130.301 27.1665 130.477 26.0069 130.514 24.8384C130.493 21.4983 129.169 18.301 126.83 15.9391C124.49 13.5772 121.323 12.241 118.015 12.22Z" fill="#374151"/>
<path d="M132.224 36.1286C131.989 36.1286 131.76 36.0585 131.566 35.9272C131.371 35.7958 131.219 35.6091 131.13 35.3907C131.04 35.1722 131.017 34.9319 131.062 34.7C131.108 34.4681 131.221 34.2551 131.386 34.0879C131.552 33.9207 131.763 33.8069 131.993 33.7607C132.222 33.7146 132.46 33.7383 132.677 33.8288C132.893 33.9192 133.078 34.0725 133.208 34.269C133.338 34.4656 133.408 34.6968 133.408 34.9332C133.408 35.0904 133.378 35.2461 133.319 35.3914C133.26 35.5368 133.172 35.6688 133.062 35.78C132.952 35.8911 132.821 35.9791 132.677 36.039C132.534 36.0988 132.379 36.1293 132.224 36.1286ZM132.224 34.0034C132.041 34.0034 131.863 34.0579 131.712 34.1601C131.56 34.2623 131.442 34.4075 131.373 34.5774C131.303 34.7473 131.285 34.9342 131.32 35.1146C131.356 35.2949 131.444 35.4606 131.572 35.5906C131.701 35.7207 131.865 35.8092 132.044 35.8451C132.223 35.881 132.408 35.8626 132.576 35.7922C132.744 35.7218 132.888 35.6027 132.989 35.4497C133.091 35.2968 133.145 35.1171 133.145 34.9332C133.148 34.8103 133.126 34.688 133.081 34.5739C133.035 34.4597 132.968 34.356 132.881 34.2691C132.795 34.1821 132.693 34.1137 132.58 34.0681C132.466 34.0224 132.345 34.0004 132.224 34.0034ZM132.75 35.5973H132.487L132.224 35.1988H131.96V35.5973H131.697V34.4019H132.355C132.409 34.3942 132.463 34.3991 132.515 34.4164C132.566 34.4337 132.613 34.4628 132.651 34.5015C132.689 34.5402 132.718 34.5873 132.735 34.6392C132.753 34.6911 132.758 34.7462 132.75 34.8004C132.75 34.9332 132.618 35.066 132.487 35.1988L132.75 35.5973ZM132.355 34.9332C132.487 34.9332 132.487 34.9332 132.487 34.8004C132.487 34.7828 132.484 34.7654 132.477 34.7491C132.471 34.7328 132.461 34.718 132.449 34.7056C132.437 34.6932 132.422 34.6834 132.406 34.6769C132.39 34.6703 132.373 34.6672 132.355 34.6675H131.96V35.066H132.355V34.9332ZM14.3405 33.7378H17.235V41.7073H22.2345V44.231H14.3405V33.7378ZM25.2605 38.918C25.2605 38.1802 25.4089 37.45 25.6966 36.7718C25.9843 36.0936 26.4054 35.4814 26.9343 34.9722C27.4632 34.4631 28.089 34.0676 28.7737 33.8098C29.4584 33.5519 30.1879 33.437 30.9178 33.4721C31.641 33.4392 32.3632 33.5566 33.0396 33.8169C33.716 34.0772 34.3323 34.4749 34.8503 34.9854C35.3683 35.4959 35.777 36.1084 36.0511 36.7848C36.3251 37.4613 36.4587 38.1873 36.4436 38.918C36.4436 39.6558 36.2952 40.3859 36.0075 41.0641C35.7198 41.7423 35.2987 42.3546 34.7698 42.8637C34.2409 43.3729 33.6151 43.7683 32.9304 44.0262C32.2457 44.284 31.5162 44.3989 30.7863 44.3638C30.0659 44.3855 29.3486 44.2604 28.6772 43.996C28.0057 43.7317 27.3939 43.3335 26.8782 42.8253C26.3625 42.317 25.9535 41.7091 25.6755 41.0378C25.3976 40.3665 25.2565 39.6455 25.2605 38.918ZM33.5492 38.918C33.5749 38.5498 33.5265 38.1801 33.4068 37.8313C33.287 37.4825 33.0985 37.1619 32.8525 36.8887C32.6066 36.6156 32.3083 36.3956 31.9758 36.2422C31.6433 36.0887 31.2834 36.0049 30.9178 35.9958C30.2084 36.0308 29.5395 36.3399 29.0496 36.8592C28.5597 37.3784 28.2865 38.0681 28.2865 38.7851C28.2865 39.5022 28.5597 40.1918 29.0496 40.7111C29.5395 41.2304 30.2084 41.5395 30.9178 41.5745C32.4966 41.8401 33.5492 40.5119 33.5492 38.918ZM39.9959 39.5821V33.7378H42.8903V39.5821C42.8903 41.0432 43.6797 41.8401 44.8638 41.8401C45.1404 41.8634 45.4185 41.8231 45.6775 41.7225C45.9365 41.6219 46.1696 41.4635 46.3594 41.2591C46.5492 41.0547 46.6907 40.8097 46.7735 40.5423C46.8563 40.2749 46.8781 39.992 46.8373 39.7149V33.7378H49.7318V39.5821C49.7318 43.0356 47.7583 44.4967 44.8638 44.4967C41.8378 44.3638 39.9959 42.9027 39.9959 39.5821ZM54.0734 33.7378H58.152C61.8358 33.7378 64.0724 35.863 64.0724 38.918C64.0724 41.973 61.8358 44.231 58.152 44.231H54.205V33.7378H54.0734ZM58.152 41.5745C58.5186 41.6098 58.8885 41.5674 59.238 41.45C59.5874 41.3325 59.9087 41.1427 60.1812 40.8926C60.4537 40.6424 60.6715 40.3376 60.8205 39.9976C60.9695 39.6575 61.0464 39.2898 61.0464 38.918C61.0464 38.5461 60.9695 38.1784 60.8205 37.8384C60.6715 37.4983 60.4537 37.1935 60.1812 36.9434C59.9087 36.6933 59.5874 36.5034 59.238 36.386C58.8885 36.2685 58.5186 36.2261 58.152 36.2614H56.9679V41.5745H58.152ZM68.151 33.7378H76.4396V36.2614H71.0454V37.9882H75.9134V40.3791H71.0454V44.231H68.151V33.7378ZM80.5182 33.7378H83.4126V41.7073H88.4121V44.231H80.5182V33.7378ZM95.9114 33.6049H98.8058L103.279 44.231H100.122L99.3321 42.3714H95.2536L94.4642 44.231H91.4382L95.9114 33.6049ZM98.5427 40.1134L97.3586 37.1912L96.1745 40.1134H98.5427ZM106.963 33.7378H111.831C112.452 33.6869 113.077 33.7669 113.666 33.9727C114.254 34.1784 114.795 34.5055 115.252 34.9332C115.629 35.3435 115.902 35.8394 116.049 36.3791C116.196 36.9187 116.212 37.4861 116.096 38.0333C115.98 38.5805 115.735 39.0914 115.382 39.5229C115.029 39.9543 114.578 40.2935 114.067 40.5119L116.567 44.231H113.278L111.173 41.0432H109.857V44.231H106.963V33.7378ZM111.699 38.7851C112.62 38.7851 113.278 38.2538 113.278 37.5897C113.278 36.7928 112.62 36.3943 111.699 36.3943H109.857V38.918H111.699V38.7851ZM120.251 33.7378H128.671V36.1286H123.146V37.7225H128.145V40.1134H123.146V41.7073H128.803V44.231H120.251V33.7378ZM8.02536 40.2462C7.82693 40.7156 7.49722 41.1164 7.07659 41.3995C6.65596 41.6826 6.16269 41.8358 5.65718 41.8401C4.94773 41.8052 4.27879 41.496 3.78894 40.9768C3.29909 40.4575 3.02586 39.7679 3.02586 39.0508C3.02586 38.3337 3.29909 37.6441 3.78894 37.1248C4.27879 36.6055 4.94773 36.2964 5.65718 36.2614C6.19522 36.2719 6.71851 36.4409 7.16264 36.7477C7.60678 37.0545 7.95238 37.4857 8.15693 37.9882H11.1829C10.9241 36.7158 10.2269 35.5773 9.21524 34.7748C8.20358 33.9723 6.94291 33.5578 5.65718 33.6049C4.92991 33.5811 4.20521 33.7036 3.52538 33.9656C2.84555 34.2275 2.22419 34.6234 1.69756 35.1304C1.17093 35.6373 0.749579 36.2451 0.458095 36.9182C0.166611 37.5913 0.0108292 38.3163 -0.000159405 39.0508C-0.00420918 39.7784 0.136943 40.4993 0.414876 41.1706C0.692809 41.8419 1.10183 42.4498 1.61753 42.9581C2.13324 43.4663 2.74506 43.8645 3.4165 44.1288C4.08794 44.3932 4.80524 44.5183 5.52561 44.4967C6.78267 44.5052 8.00704 44.0926 9.00697 43.3235C10.0069 42.5543 10.7259 41.4721 11.0514 40.2462H8.02536Z" fill="#374151"/>
</g>
<defs>
<clipPath id="clip0_3315_1332">
<rect width="134.047" height="44.2856" fill="white"/>
</clipPath>
</defs>
</svg>

<svg xmlns="http://www.w3.org/2000/svg" width="135" height="45" fill="none"><g clip-path="url(#a)"><path fill="#fff" d="m124.592 14.08-7.367-1.727-1.316-.532-33.813.266v16.47l42.496.133z"/><path fill="#374151" d="M110.778 27.097a3.83 3.83 0 0 0-.395-3.454 4.044 4.044 0 0 0-2.763-1.461l-22.892-.266c-.132 0-.263-.133-.395-.133a.25.25 0 0 1-.072-.31.25.25 0 0 1 .072-.088c.132-.266.263-.399.526-.399l23.025-.265a8.24 8.24 0 0 0 4.033-1.605 8.34 8.34 0 0 0 2.676-3.442l1.316-3.454c0-.133.132-.266 0-.399a15.16 15.16 0 0 0-4.943-8.238A14.92 14.92 0 0 0 102.1.023c-3.26-.18-6.49.718-9.198 2.56a15.12 15.12 0 0 0-5.806 7.645 7.13 7.13 0 0 0-4.736-1.329 6.83 6.83 0 0 0-4.087 1.984 6.95 6.95 0 0 0-1.965 4.126 7.3 7.3 0 0 0 .131 2.391 9.57 9.57 0 0 0-6.62 2.933 9.75 9.75 0 0 0-2.72 6.764c-.023.49.022.982.13 1.46a.425.425 0 0 0 .395.4h42.233c.263 0 .526-.134.526-.4zM118.015 12.22h-.658c-.131 0-.263.133-.395.266l-.92 3.187a3.82 3.82 0 0 0 .394 3.454 4.07 4.07 0 0 0 2.763 1.461l4.868.266c.132 0 .263.133.395.133a.25.25 0 0 1 .072.31.25.25 0 0 1-.072.088c-.132.266-.263.398-.527.398l-4.999.266a8.23 8.23 0 0 0-4.033 1.605 8.35 8.35 0 0 0-2.677 3.442l-.263 1.196c-.132.133 0 .398.263.398h17.367a.35.35 0 0 0 .296-.1.35.35 0 0 0 .099-.298c.313-1.126.489-2.285.526-3.454a12.76 12.76 0 0 0-3.684-8.899 12.52 12.52 0 0 0-8.815-3.719M132.224 36.129a1.187 1.187 0 0 1-1.094-.738 1.21 1.21 0 0 1 .256-1.303 1.18 1.18 0 0 1 1.291-.26 1.205 1.205 0 0 1 .385 1.951 1.18 1.18 0 0 1-.838.35m0-2.126a.92.92 0 0 0-.851.574.94.94 0 0 0 .199 1.014.92.92 0 0 0 1.004.201.93.93 0 0 0 .569-.859.92.92 0 0 0-.264-.664.9.9 0 0 0-.657-.266m.526 1.594h-.263l-.263-.398h-.264v.398h-.263v-1.195h.658a.35.35 0 0 1 .38.237.34.34 0 0 1 .015.161c0 .133-.132.266-.263.399zm-.395-.664c.132 0 .132 0 .132-.133a.1.1 0 0 0-.01-.05.13.13 0 0 0-.071-.073.1.1 0 0 0-.051-.01h-.395v.399h.395zM14.341 33.738h2.894v7.97h5v2.523H14.34zm10.92 5.18c0-.738.148-1.468.436-2.146a5.5 5.5 0 0 1 1.237-1.8 5.4 5.4 0 0 1 1.84-1.162 5.4 5.4 0 0 1 2.144-.338 5.2 5.2 0 0 1 2.122.345c.676.26 1.292.658 1.81 1.168s.927 1.123 1.201 1.8c.274.676.408 1.402.393 2.133 0 .738-.149 1.468-.437 2.146a5.5 5.5 0 0 1-1.237 1.8 5.4 5.4 0 0 1-1.84 1.162 5.4 5.4 0 0 1-2.144.338 5.3 5.3 0 0 1-2.109-.368 5.4 5.4 0 0 1-1.799-1.17 5.4 5.4 0 0 1-1.203-1.788 5.5 5.5 0 0 1-.415-2.12m8.288 0a2.76 2.76 0 0 0-.697-2.03 2.7 2.7 0 0 0-1.934-.892 2.76 2.76 0 0 0-1.868.863 2.8 2.8 0 0 0-.764 1.926c0 .717.274 1.407.764 1.926.49.52 1.158.828 1.868.864 1.579.265 2.631-1.063 2.631-2.657m6.447.664v-5.844h2.894v5.844c0 1.461.79 2.258 1.974 2.258a1.82 1.82 0 0 0 1.495-.58 1.86 1.86 0 0 0 .478-1.545v-5.977h2.895v5.844c0 3.454-1.974 4.915-4.868 4.915-3.026-.133-4.868-1.594-4.868-4.915m14.077-5.844h4.079c3.684 0 5.92 2.125 5.92 5.18s-2.236 5.313-5.92 5.313h-3.947V33.738zm4.079 7.837a2.62 2.62 0 0 0 2.03-.682 2.67 2.67 0 0 0 .864-1.975 2.7 2.7 0 0 0-.865-1.975 2.64 2.64 0 0 0-2.029-.682h-1.184v5.313zm9.999-7.837h8.289v2.523h-5.395v1.727h4.868v2.391h-4.868v3.852h-2.894zm12.367 0h2.895v7.97h5v2.523h-7.895zm15.393-.133h2.895l4.473 10.626h-3.157l-.79-1.86h-4.078l-.79 1.86h-3.026zm2.632 6.508-1.184-2.922-1.184 2.922zm8.42-6.375h4.868a4.46 4.46 0 0 1 3.421 1.195 3.519 3.519 0 0 1 .13 4.59c-.353.431-.804.77-1.315.989l2.5 3.719h-3.289l-2.105-3.188h-1.316v3.188h-2.894zm4.736 5.047c.921 0 1.579-.531 1.579-1.195 0-.797-.658-1.196-1.579-1.196h-1.842v2.524h1.842zm8.552-5.047h8.42v2.39h-5.525v1.594h4.999v2.391h-4.999v1.594h5.657v2.524h-8.552zM8.025 40.246c-.198.47-.528.87-.948 1.154-.421.283-.914.436-1.42.44a2.76 2.76 0 0 1-1.868-.863 2.8 2.8 0 0 1-.763-1.926c0-.717.273-1.407.763-1.926a2.76 2.76 0 0 1 1.868-.864c.538.01 1.062.18 1.506.487.444.306.79.738.994 1.24h3.026a5.5 5.5 0 0 0-1.968-3.213 5.4 5.4 0 0 0-3.558-1.17 5.4 5.4 0 0 0-2.132.36 5.5 5.5 0 0 0-1.827 1.165 5.5 5.5 0 0 0-1.24 1.788A5.6 5.6 0 0 0 0 39.051a5.5 5.5 0 0 0 .415 2.12c.278.67.687 1.279 1.203 1.787a5.4 5.4 0 0 0 1.799 1.17 5.3 5.3 0 0 0 2.109.369 5.65 5.65 0 0 0 3.481-1.173c1-.77 1.719-1.852 2.044-3.078z"/></g><defs><clipPath id="a"><path fill="#fff" d="M0 0h134.047v44.286H0z"/></clipPath></defs></svg>
